X:153
T:Hamish the Carpenter
T:Old Time Wedding Reel #2
D:Boys of the Lough, Welcoming Paddy Home (1986)
Z:Nigel Gatherer
M:4/4
L:1/8
K:A dorian
A2 GE GAgf | e2 dB de g2 | A2 GE GAgf | egdB AAAB |
A2 GE GAgf | e2 dB de g2 | (3efg dB GABd | (3efg dB G2 G2 |]
eaab a2 ge | gaba ge d2 | eaab a2 ge | dBgB BA A2 :|
